X: 30157
T: Old Cowhill, The
R: reel
M: 4/4
K: Gmajor
|:GA|BGdG gfdc|AccB AG=FD|GABg fdcA|DFAG GFG2:|
GA|BGdg gfdc|AccB AG=F2|GABg fdcA|DFAG GFG2|
GA|BDGg gfdc|AccB AG=F2|GABg fdcA|DFAG GFG2|
|:Bc|dgga bgaf|defa gfdc|dgg~g bgaf|defa g/a/g/f/ga|
bggf gfdc|AccB AG=F2|GABg fdcA|DFAG GFG2:|

